X: 13
T: Reel With The Birl, The
Z: Bregolas
S: https://thesession.org/tunes/189#setting49836
R: reel
M: 4/4
L: 1/8
K: Edor
~E2BE dEBE | ~E2BE FEDF | ~E2BE dEBE | dedB ADFD |
~E2BE dEBE | ~E2BE FEDF | GFEF GABc | dedB ADFA ||
BA B/c/d e3g | fd{e}dc d2ef | g3 g~g2 fe | fa~a2 afed |
fb b/b/b bafe | fa a/a/a afed | ~B3=c BAB^c | dedB ADFD ||

